X: 21474
T: WITTLE DEAN
R: reel
B: K\"ohler's Violin Repository, v.2, 1885 p.147 #4
F: http://www.archive.org/details/klersviolinrepos02rugg
Z: 2012 John Chambers <jc:trillian.mit.edu>
M: C|
L: 1/8
K: A
u((3EFG) |\
(Ac)EG (Ac)ec | (df)Bc (de)fg | agag fedc | BAGF EdcB |
(Ac)EG (Ac)ec | (df)Bc (de)fg | agae (fd)BG | A2c2 A2 :|
|: u((3efg) |\
a2(ec) Acea | gbge Bega | gbge (f/g/a) f^d | (e^d)ef e=dcB |
(Ac)EG (Ac)ec | (df)Bc (de)fg | agae (fd)BG | A2c2 A2 :|

%%sep 2 1 500

